X:430
T:Polonäs i F efter Johan Eric Blomgren
R:Slängpolska
O:Skåne, Hässlunda
B:http://www.smus.se/earkiv/fmk/browselarge.php?lang=sw&katalogid=Ma+13a&bildnr=00158
S:efter Johan Eric Blomgren
Z:Nils L
M:3/4
L:1/16
K:F
cBAB c2f2 f2a2 | gfef gfed c4 | c2b2 bgbg a2f2 | fefa gfed c4 |
cBAB c2f2 f2a2 | gfef gfed c4 | c2b2 bgbg a2f2 | bgfe g4 f4 ::
eceg eceg agfe | fcfa fcfa bagf | eceg eceg agfe | fcfa fcfa bagf |
b2bg a2af b2g2 | fedc cfge f4 :|

